X: 40
T:The House of Hamill
R:reel
C:Ed Reavy
M:4/4
L:1/8
Z:Joe Reavy
N:Ed's mother was a Hamill and 
N:they came from Monaghan. They had
N:a fondness for music and the 
N:traditional way of life.
N:Ed learned many tunes from Mom, who 
N:as an old-time "lyddler." She played
N: no instrument, but she could hold a 
N:tune with the best in her region.
K:D
D|:EBBA BFAF|EBBc dAFD|EBBA (3Bcd ef|gfec dAFD|
EBBA BFAF|EBBc dAFD|EBBA (3Bcd ef|gfec dAFA||
BE (3EEE dE (3EEE|BE (3EEE dAFA|BE (3EEE (3Bcd ef|
gfec dAFD|BE (3EEE dE (3DEE dAFA|BAGF GBef|gfec dAfA||
B2 ^GB eBGB|BA^GB ADFA|B2 ^GB eBGB|=gfec dAfA|
B2 ^GB eBGB|BA^GB ADFA|BA=GF GBbf|gfec dAFD:|
